lut.cube
TITLE "Generated by Resolve"
LUT_3D_SIZE 33
0.0301823 0.0408637 0.0480507
0.0312352 0.0413214 0.048249
0.0377813 0.0429541 0.0484779
0.0601205 0.0467689 0.0488594
0.0968032 0.0532235 0.048127
0.130159 0.0614023 0.0487678
0.161776 0.0691386 0.0484474
0.195468 0.0765545 0.0452583
0.2327 0.0824292 0.0394903
0.272862 0.0883345 0.0340887
0.313176 0.093904 0.0322728
0.351278 0.100038 0.0319371
0.386236 0.1066 0.0326238
0.418097 0.113176 0.034287
0.447364 0.120958 0.0340429
0.474022 0.129061 0.0352789
0.499413 0.137804 0.0369573
0.523171 0.145739 0.0375372
0.54612 0.154803 0.0377203
0.567987 0.163088 0.0386816
0.589166 0.172305 0.0400854
0.609232 0.181201 0.0405432
0.628122 0.189822 0.0409857
0.64625 0.1991 0.0413977
0.662974 0.207767 0.0422217
0.678737 0.21622 0.0425574
0.693462 0.225269 0.0440986
0.707164 0.233127 0.047013
0.720088 0.240833 0.0505684
0.73286 0.247669 0.0578622
0.744366 0.25304 0.0675364
0.754574 0.256779 0.0823377
0.762951 0.259754 0.099794
0.0294957 0.042237 0.0489509
0.0319829 0.0427253 0.049012
0.0415503 0.0447089 0.0490425
0.0617075 0.0482795 0.0493935
0.0937819 0.0543374 0.0487984
0.125826 0.0623484 0.0490578
0.157656 0.0704662 0.0490883
0.192401 0.0780346 0.0461585
0.229984 0.084123 0.0403906
0.270893 0.0901198 0.0347601
0.31191 0.0958267 0.0328527
0.350408 0.10161 0.0323033
0.385794 0.108293 0.0329137
0.417884 0.114748 0.034699
0.447227 0.122484 0.0341497
0.474022 0.130526 0.0354314
0.499397 0.139193 0.0371252
0.523217 0.147036 0.037705
0.546197 0.156024 0.0377508
0.568093 0.164248 0.0387579
0.589349 0.173495 0.0399786
0.609415 0.182254 0.0404212
0.628382 0.190982 0.0408179
0.646494 0.200122 0.0412909
0.663233 0.208728 0.0420996
0.679042 0.217227 0.0423133
0.693767 0.226184 0.0439918
0.707454 0.233967 0.0469825
0.720394 0.241688 0.0504158
0.733181 0.248478 0.0576486
0.744701 0.253819 0.0674144
0.754879 0.257435 0.0822309
0.763287 0.260456 0.0996872
0.0254215 0.0478065 0.0510567
0.0274052 0.0482032 0.0513619
0.0397498 0.0508125 0.052018
0.0627146 0.0558328 0.0527352
0.0897536 0.0623941 0.0525978
0.119387 0.0691386 0.0518196
0.152682 0.0769665 0.05066
0.187549 0.0841535 0.047776
0.22591 0.0908827 0.0427558
0.267262 0.0971389 0.0373541
0.309056 0.102937 0.0353094
0.348333 0.108888 0.0337835
0.384039 0.114626 0.0342107
0.417166 0.121828 0.0359503
0.446754 0.128649 0.0349279
0.474098 0.136767 0.0359503
0.49955 0.144656 0.0378119
0.52369 0.153002 0.0382239
0.546563 0.161059 0.0379187
0.56875 0.169696 0.0389715
0.590066 0.178439 0.0395361
0.610147 0.186618 0.0399634
0.629419 0.195789 0.0404517
0.647547 0.204425 0.0408484
0.664378 0.212787 0.0413672
0.680323 0.221469 0.0417639
0.695018 0.229969 0.043595
0.708751 0.237781 0.0467994
0.721767 0.245274 0.0500038
0.734493 0.251881 0.056733
0.746059 0.256992 0.0668803
0.756191 0.260319 0.0817884
0.764721 0.263432 0.0991989
0.0233616 0.0599527 0.0543679
0.0251316 0.0602121 0.0548104
0.0351568 0.0619059 0.0560922
0.06009 0.0676432 0.0578927
0.0896773 0.075639 0.059678
0.120043 0.0825208 0.0584268
0.154803 0.0897993 0.0552071
0.192584 0.0965896 0.0497139
0.231266 0.103075 0.0455177
0.270695 0.109575 0.0407568
0.310765 0.115816 0.0396429
0.348928 0.122087 0.0371099
0.384497 0.127626 0.0377661
0.417594 0.134173 0.0382391
0.447333 0.141009 0.0369879
0.474357 0.148074 0.0378271
0.500313 0.155978 0.0386969
0.524559 0.163424 0.0389105
0.547845 0.171481 0.0382239
0.570199 0.179828 0.0384833
0.591394 0.187732 0.0387732
0.611902 0.196384 0.0387274
0.631327 0.204425 0.039765
0.649577 0.212757 0.0403449
0.666712 0.221256 0.0401007
0.68275 0.229603 0.0413825
0.697383 0.237491 0.0428168
0.71136 0.245518 0.0462043
0.724498 0.252583 0.049012
0.737072 0.258518 0.0546731
0.748791 0.263355 0.0650339
0.758877 0.266407 0.0809033
0.767544 0.269398 0.0983139
0.0220188 0.0763867 0.0600595
0.0240024 0.076585 0.0603799
0.034287 0.0777905 0.0615854
0.0579538 0.0823682 0.0637522
0.0897231 0.0913405 0.0663767
0.121828 0.0993668 0.0667124
0.156939 0.106172 0.0627909
0.196307 0.112657 0.0579232
0.239933 0.119646 0.0514839
0.282536 0.127153 0.0464485
0.322286 0.134127 0.0446479
0.357427 0.140093 0.0429541
0.390433 0.145678 0.0424659
0.421912 0.152071 0.0410925
0.450507 0.15845 0.0399939
0.477394 0.165087 0.0401312
0.503197 0.172473 0.0396124
0.527199 0.179629 0.0386053
0.550042 0.186877 0.037995
0.572488 0.194537 0.0375219
0.594095 0.202365 0.0374609
0.614664 0.209857 0.0386206
0.634256 0.21799 0.0393835
0.652811 0.225834 0.039353
0.67013 0.233875 0.0399481
0.686244 0.24184 0.0404669
0.701122 0.249485 0.0416571
0.715206 0.256748 0.0439307
0.728435 0.263493 0.0468452
0.741024 0.269017 0.0514687
0.752941 0.273625 0.061799
0.763149 0.27602 0.0785077
0.771878 0.278431 0.0971695
0.0199588 0.0961013 0.0672007
0.0213169 0.096376 0.0674754
0.0290684 0.097612 0.0686046
0.0529335 0.100908 0.0705425
0.0872206 0.1084 0.0731518
0.12195 0.117433 0.0749065
0.157733 0.125292 0.0734417
0.198352 0.132296 0.0683299
0.242786 0.139696 0.0619974
0.289021 0.147036 0.0563516
0.333639 0.154955 0.0517281
0.370504 0.161929 0.0485542
0.403571 0.168246 0.0460975
0.432761 0.174502 0.0447242
0.459373 0.180575 0.0436103
0.48513 0.186999 0.0410468
0.509514 0.193774 0.0396887
0.53228 0.200381 0.0396277
0.555016 0.206882 0.0384985
0.577127 0.214145 0.0378271
0.598169 0.221088 0.0374914
0.618753 0.228519 0.0378271
0.638666 0.235889 0.0380865
0.657282 0.243565 0.0382544
0.674556 0.250889 0.0381323
0.690822 0.257984 0.0382239
0.70605 0.265324 0.0395972
0.720302 0.272114 0.0403906
0.733761 0.278386 0.0428016
0.746609 0.283314 0.0485237
0.758434 0.287144 0.0575723
0.7691 0.28957 0.0737011
0.77789 0.29102 0.0940566
0.0160678 0.118044 0.0751507
0.0176547 0.118364 0.0753948
0.0246128 0.119677 0.0763867
0.0458839 0.122621 0.0781872
0.0803082 0.128298 0.080293
0.118547 0.137362 0.0824903
0.1579 0.146654 0.0831617
0.199557 0.1552 0.0801099
0.244297 0.162982 0.0741283
0.291402 0.170443 0.0660258
0.336583 0.177966 0.0599222
0.37818 0.185672 0.0538949
0.416434 0.193423 0.0513466
0.445975 0.199863 0.0487373
0.473686 0.206409 0.0460059
0.49752 0.212451 0.0449836
0.520104 0.218601 0.0434272
0.541848 0.224598 0.0417639
0.563622 0.230945 0.0400092
0.584543 0.237613 0.0379492
0.60499 0.244282 0.0367285
0.625177 0.250736 0.0362402
0.644373 0.257496 0.036408
0.662699 0.264546 0.0364691
0.680247 0.271473 0.0355077
0.696666 0.278111 0.035935
0.711879 0.284642 0.0371557
0.726375 0.290623 0.0389563
0.740169 0.296544 0.04094
0.753414 0.301549 0.0460212
0.765576 0.305028 0.0535897
0.776547 0.307149 0.0691997
0.78529 0.307012 0.0928969
0.0142214 0.143099 0.0826429
0.0155337 0.143465 0.0828717
0.0211032 0.144854 0.0838331
0.0348363 0.147951 0.0858167
0.0706493 0.153079 0.0882124
0.112779 0.161196 0.0898146
0.155581 0.171099 0.090837
0.20032 0.180606 0.0893873
0.245075 0.189136 0.0837568
0.292058 0.196658 0.0760662
0.338003 0.203693 0.0686656
0.380316 0.21091 0.0609751
0.418814 0.218799 0.0573739
0.452506 0.226551 0.0539254
0.483879 0.234043 0.0509041
0.508873 0.24033 0.0472725
0.532845 0.246418 0.0450752
0.554253 0.252064 0.0440223
0.574807 0.258106 0.0413825
0.594965 0.264118 0.0387427
0.614618 0.269932 0.0385443
0.63328 0.275822 0.0373541
0.651621 0.281804 0.0361181
0.66981 0.28809 0.035462
0.6869 0.29456 0.0349279
0.70341 0.300832 0.0349889
0.719051 0.307027 0.0359197
0.733684 0.312871 0.0358434
0.747677 0.318013 0.0381323
0.761044 0.322316 0.0419013
0.773495 0.32546 0.0488746
0.784833 0.326833 0.0636149
0.794202 0.326497 0.0885023
0.0090486 0.170642 0.0897231
0.00996414 0.171008 0.0899214
0.0137484 0.172519 0.0908064
0.0247044 0.175509 0.0926375
0.0561379 0.180362 0.0953231
0.104616 0.187793 0.0973678
0.149554 0.197269 0.0972763
0.19765 0.206867 0.0961929
0.245304 0.216434 0.0914321
0.291859 0.224887 0.0829786
0.337301 0.232471 0.0737621
0.380514 0.239872 0.0658579
0.419821 0.247364 0.0601816
0.454276 0.254765 0.0567025
0.48574 0.262104 0.0529335
0.514778 0.268986 0.0512856
0.540993 0.27483 0.0498512
0.563348 0.280385 0.0472267
0.585458 0.285847 0.0447242
0.605325 0.291325 0.0428321
0.624674 0.296971 0.0411841
0.643366 0.302663 0.0400854
0.661036 0.30811 0.0383307
0.67808 0.31397 0.0365606
0.695048 0.319799 0.0351263
0.71136 0.325841 0.0333715
0.726619 0.331868 0.0326696
0.741619 0.33698 0.0346227
0.755901 0.341909 0.0358892
0.769558 0.345571 0.0383612
0.782376 0.348363 0.0433204
0.794171 0.349386 0.0583963
0.803845 0.348409 0.0822156
0.00444038 0.199283 0.0959182
0.0049897 0.199664 0.0960861
0.00723278 0.201175 0.0968338
0.0165408 0.20412 0.0984817
0.0423743 0.208942 0.101259
0.087541 0.215915 0.10367
0.141268 0.225055 0.103029
0.192248 0.234546 0.100587
0.243168 0.24387 0.0966506
0.291356 0.253437 0.0894331
0.336095 0.261707 0.0795453
0.37911 0.2692 0.0704204
0.418341 0.276402 0.0653849
0.454658 0.283696 0.0607462
0.486259 0.290761 0.0567788
0.515404 0.297246 0.0535744
0.542626 0.303349 0.0510109
0.568719 0.3093 0.0495003
0.592325 0.314961 0.047425
0.613504 0.32015 0.0447089
0.633844 0.325246 0.0446479
0.652369 0.33048 0.0428931
0.670771 0.33579 0.041886
0.687877 0.340978 0.0395972
0.70399 0.346334 0.0373236
0.719768 0.351751 0.0362707
0.735103 0.357122 0.0359197
0.74995 0.36257 0.0347753
0.764523 0.366857 0.0346075
0.77847 0.370687 0.0358282
0.791699 0.372992 0.0417792
0.804044 0.373358 0.0512245
0.813977 0.371893 0.0760815
0.00303655 0.228473 0.100893
0.00370794 0.228779 0.101045
0.00694286 0.230289 0.101778
0.0134279 0.233204 0.103319
0.0311131 0.237903 0.106111
0.0690776 0.244465 0.108904
0.129747 0.253071 0.108904
0.184939 0.262623 0.105104
0.23946 0.271534 0.0992599
0.288777 0.280888 0.092195
0.335195 0.290455 0.0844129
0.377462 0.298573 0.0740368
0.416907 0.306004 0.0663615
0.452781 0.313161 0.0616159
0.485756 0.32018 0.0568399
0.515694 0.326696 0.0553597
0.543252 0.332601 0.0530556
0.56997 0.338186 0.0511025
0.595483 0.343755 0.0484321
0.619577 0.349111 0.0488289
0.639948 0.353765 0.0475013
0.659953 0.358404 0.0478981
0.678538 0.363241 0.0465553
0.696284 0.368185 0.0447852
0.713161 0.373342 0.0428168
0.728664 0.37821 0.0393683
0.743542 0.38323 0.0377508
0.758541 0.387991 0.0366369
0.773083 0.392752 0.0350805
0.787564 0.396155 0.0357214
0.80116 0.398672 0.0365454
0.814054 0.399176 0.0472114
0.824826 0.39736 0.0709239
0.00331121 0.257664 0.105196
0.00389105 0.257984 0.105241
0.00630198 0.259251 0.10576
0.0108644 0.262089 0.106828
0.0220798 0.266423 0.109178
0.0565652 0.272663 0.11223
0.117433 0.280812 0.113313
0.176959 0.290333 0.109819
0.232441 0.299001 0.102449
0.286107 0.307973 0.094667
0.332448 0.317311 0.0864118
0.375921 0.326436 0.0791638
0.414786 0.33402 0.0719768
0.450538 0.340948 0.0653391
0.483452 0.347723 0.0609293
0.514641 0.354284 0.0569467
0.544228 0.360433 0.0545205
0.571008 0.365896 0.0525521
0.596918 0.371191 0.0502785
0.621347 0.376257 0.0483406
0.644327 0.38114 0.0484474
0.665278 0.385809 0.0476997
0.684962 0.390417 0.0484932
0.703456 0.395071 0.0483253
0.720516 0.399908 0.0466773
0.737133 0.405066 0.047013
0.751995 0.409751 0.0441596
0.766918 0.414359 0.042359
0.781781 0.418799 0.0399786
0.796536 0.422995 0.0369116
0.810834 0.425513 0.0388037
0.824384 0.426215 0.0448615
0.835752 0.424216 0.0620432
0.00294499 0.286244 0.1093
0.00332647 0.286549 0.109331
0.00494392 0.287831 0.109514
0.00828565 0.29041 0.110353
0.0193179 0.294575 0.111742
0.0508431 0.300389 0.113924
0.106035 0.307851 0.115221
0.168902 0.31667 0.113588
0.225971 0.325643 0.106142
0.281117 0.333913 0.0963149
0.330266 0.342947 0.0894789
0.372259 0.35169 0.0826734
0.41239 0.359991 0.076585
0.448646 0.367147 0.0695506
0.482094 0.373877 0.0634165
0.513634 0.380407 0.0608072
0.543679 0.386648 0.0578012
0.572732 0.392874 0.05449
0.598657 0.398245 0.0518959
0.623194 0.403296 0.0523079
0.646433 0.408179 0.0526741
0.668971 0.413214 0.0522927
0.690013 0.418082 0.0507515
0.709026 0.422324 0.0508583
0.726925 0.426596 0.0525216
0.743755 0.431449 0.0514992
0.760082 0.436545 0.0518959
0.775357 0.441032 0.049073
0.790326 0.445411 0.0458991
0.805585 0.449516 0.0421149
0.820493 0.452873 0.0386053
0.834562 0.453895 0.0410468
0.846845 0.452003 0.0596323
0.00234989 0.314107 0.113329
0.00257877 0.314382 0.113359
0.00354009 0.315557 0.11342
0.00819409 0.317876 0.113558
0.0215457 0.321675 0.114611
0.0454108 0.32694 0.116075
0.0978714 0.3337 0.117662
0.16022 0.341787 0.117098
0.218585 0.350744 0.110994
0.274495 0.359045 0.101549
0.324468 0.367315 0.0902113
0.36907 0.37612 0.0852064
0.408408 0.384527 0.0812848
0.44651 0.392538 0.0761883
0.480934 0.399466 0.0702678
0.512886 0.405982 0.0658274
0.543252 0.412299 0.0626688
0.572305 0.418631 0.0595254
0.600381 0.424643 0.0567178
0.62533 0.42977 0.0540169
0.648768 0.434592 0.0531319
0.671473 0.439582 0.0525521
0.693309 0.444587 0.0514687
0.713726 0.449424 0.0513008
0.731838 0.453452 0.0527047
0.749722 0.457877 0.0549783
0.7664 0.462623 0.0539101
0.782971 0.467796 0.0548714
0.798489 0.472114 0.0513161
0.814252 0.476661 0.0480201
0.829709 0.480278 0.0442054
0.844633 0.482002 0.0456245
0.857694 0.480735 0.0570077
0.00474556 0.340398 0.117281
0.0052491 0.340658 0.11725
0.00704967 0.341756 0.117189
0.0103304 0.343923 0.116976
0.0187533 0.34728 0.117281
0.0439155 0.352178 0.117266
0.0937514 0.358434 0.118273
0.154681 0.366033 0.118975
0.211627 0.374548 0.115404
0.266941 0.383062 0.107195
0.317922 0.390875 0.0975814
0.363195 0.399237 0.0899519
0.404181 0.40798 0.085069
0.441627 0.416144 0.0822461
0.478309 0.423835 0.0777295
0.511543 0.43061 0.0726329
0.542397 0.437049 0.067628
0.571878 0.443458 0.0610208
0.599878 0.4495 0.0600595
0.626734 0.455192 0.0592508
0.650874 0.460243 0.0579232
0.67364 0.465309 0.056733
0.695491 0.470253 0.0551614
0.716411 0.475135 0.0538186
0.736202 0.479957 0.0551308
0.754513 0.484138 0.0564889
0.772274 0.48864 0.0582895
0.789258 0.493568 0.0587167
0.806012 0.498848 0.0587778
0.822263 0.503349 0.0556649
0.838331 0.507256 0.0515908
0.854124 0.509865 0.0485237
0.868009 0.509056 0.0562905
0.00454719 0.366018 0.121523
0.00482185 0.366247 0.121508
0.00598154 0.367178 0.121462
0.00846876 0.369131 0.121279
0.0223545 0.372351 0.120409
0.0437934 0.376761 0.120577
0.0890516 0.382544 0.120714
0.150729 0.389593 0.1205
0.204562 0.397467 0.117693
0.256886 0.405692 0.112459
0.309239 0.413855 0.101167
0.355077 0.421759 0.0942245
0.397375 0.430182 0.0890516
0.436744 0.438712 0.0845808
0.473045 0.446693 0.0837873
0.508721 0.454185 0.0808881
0.541268 0.461158 0.076173
0.571176 0.467704 0.0710307
0.599359 0.473915 0.0675822
0.626276 0.479759 0.0648966
0.652155 0.485405 0.062623
0.675837 0.490791 0.0609598
0.69778 0.495796 0.0599374
0.718776 0.500725 0.0596323
0.738705 0.505531 0.0592355
0.758495 0.510597 0.0594034
0.776822 0.514931 0.061738
0.794598 0.519493 0.0652781
0.811978 0.524514 0.0647288
0.829526 0.529625 0.0637217
0.846143 0.53373 0.0611582
0.862593 0.536751 0.0576638
0.877607 0.537133 0.0622416
0.00569162 0.390814 0.12668
0.00613413 0.391028 0.126604
0.00810254 0.391928 0.126238
0.0119631 0.393729 0.125917
0.0204623 0.396567 0.125368
0.0413367 0.400717 0.12314
0.0843214 0.405905 0.122835
0.140734 0.412406 0.122103
0.196994 0.419867 0.119875
0.246357 0.427787 0.117052
0.297047 0.435935 0.110826
0.346487 0.444114 0.10312
0.389517 0.452308 0.0964065
0.42974 0.460807 0.0931563
0.467735 0.469184 0.0924697
0.503517 0.477073 0.0897688
0.538598 0.484733 0.0852827
0.570275 0.49163 0.0800488
0.598749 0.497963 0.0759136
0.625803 0.50399 0.0738689
0.65185 0.509896 0.0712749
0.676768 0.515679 0.066743
0.699733 0.521004 0.065507
0.720928 0.525887 0.0661479
0.741161 0.530617 0.0666819
0.761318 0.5355 0.065919
0.781048 0.540429 0.066804
0.79939 0.544701 0.0682078
0.817639 0.54934 0.0708934
0.83592 0.554498 0.0708629
0.853544 0.559213 0.0713207
0.870634 0.562615 0.0682536
0.886625 0.564202 0.0698405
0.00564584 0.414816 0.133806
0.00596628 0.415 0.13373
0.00730907 0.415778 0.133379
0.0103304 0.417487 0.132555
0.0196078 0.420127 0.131716
0.0408331 0.423789 0.130251
0.0754406 0.428672 0.127962
0.127184 0.434562 0.126009
0.185702 0.441489 0.124147
0.236103 0.44918 0.120699
0.284215 0.457298 0.117266
0.333455 0.465507 0.109606
0.380529 0.473808 0.10428
0.42182 0.482002 0.0991073
0.460914 0.490501 0.0971237
0.498161 0.498955 0.0970321
0.533394 0.506828 0.0939193
0.567285 0.514244 0.0899519
0.597498 0.520958 0.0875868
0.624765 0.527047 0.08542
0.651179 0.53315 0.0830854
0.676371 0.538994 0.0800793
0.700511 0.54461 0.0769818
0.722866 0.549813 0.0763104
0.743267 0.554498 0.0755322
0.763561 0.559304 0.0745708
0.783871 0.564202 0.0747539
0.803647 0.56907 0.0775311
0.822599 0.573404 0.0795148
0.841611 0.578363 0.0789044
0.860426 0.583871 0.0842145
0.87808 0.587686 0.0815442
0.894881 0.590326 0.0806744
0.00587472 0.438148 0.139986
0.00633249 0.438315 0.13991
0.00825513 0.439063 0.139605
0.0120851 0.440543 0.138964
0.0184176 0.442863 0.137942
0.033875 0.44625 0.136233
0.0648051 0.450645 0.133852
0.114702 0.456092 0.130877
0.171008 0.462501 0.129229
0.22417 0.469764 0.125948
0.272633 0.477623 0.122896
0.320195 0.485756 0.119249
0.367697 0.494011 0.11339
0.412634 0.502495 0.108751
0.452674 0.510918 0.107561
0.490913 0.519493 0.10724
0.527428 0.527733 0.104921
0.561578 0.535271 0.102098
0.594247 0.542489 0.100389
0.623545 0.549065 0.0974289
0.650172 0.555276 0.0937514
0.675731 0.561273 0.0913405
0.700221 0.567025 0.087892
0.723476 0.572534 0.08748
0.745251 0.577661 0.0874952
0.76585 0.582467 0.0860304
0.786465 0.587274 0.0831617
0.806943 0.592081 0.0844434
0.827329 0.596689 0.0866865
0.847044 0.601389 0.0893721
0.866407 0.606744 0.0934615
0.884962 0.611688 0.0942702
0.902342 0.614954 0.09514
0.00521859 0.460716 0.148821
0.00534066 0.460868 0.148745
0.00628672 0.461509 0.14844
0.00926223 0.462806 0.147845
0.0146181 0.464988 0.14667
0.0288853 0.468132 0.14493
0.0552987 0.472175 0.142733
0.0970169 0.477241 0.140352
0.153017 0.483253 0.136095
0.209766 0.490166 0.13341
0.259602 0.497704 0.13022
0.306966 0.505638 0.127138
0.354055 0.513832 0.123308
0.400626 0.522301 0.119738
0.44416 0.53106 0.117174
0.483177 0.539544 0.1149
0.520455 0.547921 0.115496
0.555703 0.555825 0.11342
0.588968 0.563226 0.109987
0.620584 0.570413 0.110262
0.648981 0.577005 0.107759
0.674907 0.583093 0.105089
0.699458 0.588907 0.10277
0.722911 0.59443 0.10132
0.745769 0.599756 0.102174
0.767712 0.604761 0.102983
0.788769 0.609552 0.100862
0.809842 0.614374 0.0991836
0.831418 0.618982 0.100114
0.852155 0.623667 0.102159
0.872206 0.628962 0.10692
0.891432 0.634714 0.112535
0.909239 0.638224 0.11516
0.00354009 0.482658 0.15697
0.00364691 0.482811 0.156924
0.00408942 0.483436 0.156741
0.00643931 0.484688 0.15639
0.0139925 0.486641 0.155749
0.0231785 0.489387 0.154726
0.0419776 0.493233 0.152651
0.0806897 0.497963 0.150072
0.135897 0.503609 0.147021
0.19263 0.510033 0.143069
0.245182 0.51725 0.139773
0.293629 0.525002 0.135882
0.340597 0.533104 0.133135
0.386877 0.54165 0.129046
0.432212 0.550393 0.127749
0.474632 0.559167 0.126741
0.511971 0.567376 0.125139
0.548165 0.575418 0.124681
0.582895 0.583108 0.124071
0.615335 0.590494 0.12314
0.645945 0.597467 0.121889
0.673457 0.603845 0.1205
0.698283 0.60972 0.12018
0.722087 0.615366 0.119982
0.745571 0.620859 0.12018
0.768719 0.626154 0.120745
0.791089 0.631144 0.120317
0.812818 0.635874 0.119463
0.835172 0.64033 0.120409
0.85716 0.645121 0.121263
0.877668 0.649958 0.122408
0.897383 0.655879 0.127687
0.915633 0.660166 0.134493
0.00428779 0.504204 0.16408
0.00444038 0.504326 0.164065
0.00511177 0.50486 0.163989
0.00650034 0.505959 0.163851
0.0087892 0.507759 0.163424
0.0162051 0.510414 0.162875
0.0326238 0.513878 0.161639
0.0653391 0.518181 0.159411
0.113893 0.523552 0.157
0.174014 0.52961 0.154208
0.229709 0.536446 0.150225
0.279423 0.543923 0.147997
0.326619 0.551904 0.144259
0.372946 0.56025 0.140276
0.418647 0.568826 0.138979
0.462318 0.577447 0.138277
0.503059 0.586007 0.138003
0.540002 0.594064 0.136629
0.575463 0.601999 0.136507
0.609247 0.609659 0.137194
0.64065 0.616861 0.137972
0.669764 0.623636 0.138674
0.69633 0.629862 0.140002
0.72076 0.635615 0.138384
0.744991 0.641245 0.138125
0.769009 0.646662 0.139544
0.792889 0.651865 0.141222
0.815839 0.656565 0.139818
0.83888 0.660914 0.138766
0.861738 0.665431 0.139834
0.88307 0.670222 0.141344
0.903227 0.675837 0.145083
0.922072 0.681132 0.153368
0.00205997 0.525139 0.171405
0.00216678 0.525261 0.171389
0.00267033 0.52575 0.171313
0.00381476 0.526787 0.171191
0.00642405 0.52845 0.171054
0.0127413 0.530785 0.170871
0.026978 0.533898 0.170123
0.0473487 0.537942 0.168948
0.0924544 0.542809 0.167422
0.152773 0.548638 0.164218
0.212512 0.555138 0.161685
0.263935 0.56231 0.158221
0.312184 0.570016 0.155657
0.358801 0.578134 0.153292
0.404425 0.58648 0.151263
0.448432 0.594949 0.150118
0.491173 0.60354 0.148943
0.531121 0.612039 0.150591
0.567163 0.620066 0.150713
0.602029 0.627863 0.149844
0.634333 0.635294 0.151858
0.66421 0.642237 0.154818
0.692592 0.648798 0.156176
0.71931 0.654948 0.156374
0.744396 0.660731 0.156649
0.769177 0.666316 0.158938
0.793942 0.671687 0.160418
0.818891 0.67657 0.160128
0.842741 0.680903 0.159319
0.866133 0.685252 0.160555
0.888395 0.689906 0.161456
0.908995 0.695552 0.16463
0.928359 0.701762 0.171359
0.00157168 0.546075 0.176837
0.00167849 0.546181 0.176837
0.00210575 0.546639 0.176898
0.00302129 0.54757 0.177005
0.00640879 0.549035 0.177096
0.0111238 0.551202 0.176928
0.0179446 0.55407 0.176974
0.0393072 0.557702 0.176608
0.0743725 0.562203 0.17554
0.127459 0.567575 0.174487
0.191913 0.573816 0.172213
0.247364 0.580713 0.169863
0.297047 0.588129 0.167758
0.343755 0.595895 0.164935
0.38912 0.603998 0.163775
0.433646 0.612284 0.162814
0.47686 0.620722 0.161929
0.51812 0.629236 0.162127
0.557565 0.637659 0.163287
0.592844 0.645487 0.164965
0.625788 0.652979 0.166323
0.657053 0.660182 0.167224
0.686687 0.667094 0.170886
0.71577 0.673777 0.173892
0.743221 0.680034 0.175158
0.769055 0.685863 0.176349
0.79472 0.691402 0.178882
0.821012 0.696376 0.179202
0.846799 0.700938 0.180011
0.870695 0.705196 0.18056
0.893675 0.709728 0.181781
0.914961 0.71545 0.184848
0.934493 0.722347 0.191974
0.00149538 0.566812 0.182025
0.00155642 0.566918 0.182025
0.0018616 0.5673 0.182071
0.00248722 0.568154 0.182116
0.00329595 0.569528 0.182284
0.00531014 0.57145 0.182528
0.0132296 0.574105 0.183169
0.0269932 0.577432 0.183459
0.0493172 0.581521 0.182971
0.0967422 0.586404 0.183246
0.157626 0.592142 0.182055
0.221942 0.598672 0.180972
0.275837 0.605829 0.178927
0.323674 0.61326 0.176898
0.369696 0.621149 0.175357
0.414801 0.629297 0.173938
0.458518 0.637629 0.173251
0.500755 0.646036 0.174151
0.541604 0.654551 0.175082
0.580148 0.662821 0.176349
0.61442 0.670512 0.178912
0.64683 0.677943 0.181247
0.678553 0.685206 0.184298
0.709484 0.692317 0.187869
0.739513 0.699123 0.191791
0.767926 0.70547 0.195407
0.795071 0.711238 0.198199
0.822629 0.716503 0.199832
0.850263 0.721325 0.200549
0.875532 0.725536 0.200931
0.899153 0.730022 0.20209
0.920806 0.735729 0.204913
0.94049 0.742763 0.2103
0.000427253 0.587869 0.185763
0.000427253 0.587961 0.185809
0.000457771 0.588342 0.185962
0.000564584 0.58912 0.186297
0.0010071 0.590341 0.186603
0.00242618 0.592065 0.186999
0.00561532 0.594415 0.187808
0.0145266 0.597406 0.188647
0.029984 0.601144 0.18909
0.0619059 0.60557 0.189502
0.113039 0.610788 0.189258
0.180453 0.616617 0.189197
0.2421 0.62327 0.188663
0.295796 0.630549 0.18761
0.345205 0.6383 0.187411
0.390631 0.646281 0.186954
0.435218 0.654521 0.186328
0.478752 0.662928 0.186984
0.520226 0.671305 0.188418
0.559823 0.679606 0.190188
0.597742 0.687831 0.193515
0.633402 0.69572 0.197284
0.66714 0.703288 0.200534
0.700175 0.710735 0.204959
0.732403 0.718013 0.210117
0.763775 0.724987 0.214786
0.79443 0.731273 0.217777
0.823911 0.736934 0.219333
0.85275 0.741939 0.220249
0.880064 0.746105 0.221515
0.904433 0.750378 0.222248
0.926757 0.756115 0.224384
0.9458 0.763073 0.229877
0 0.609857 0.190906
0 0.609918 0.190921
0 0.610224 0.191043
0 0.610849 0.191272
0 0.611902 0.191638
0.000183108 0.613428 0.192248
0.00173953 0.615503 0.193072
0.00424201 0.618067 0.193973
0.0106813 0.621271 0.19498
0.0290074 0.625223 0.196231
0.0606699 0.629755 0.197177
