lut.cube
TITLE "Generated by Resolve"
LUT_3D_SIZE 9
0.0301823 0.0408637 0.0480507
0.0968032 0.0532235 0.048127
0.2327 0.0824292 0.0394903
0.386236 0.1066 0.0326238
0.499413 0.137804 0.0369573
0.589166 0.172305 0.0400854
0.662974 0.207767 0.0422217
0.720088 0.240833 0.0505684
0.762951 0.259754 0.099794
0.0220188 0.0763867 0.0600595
0.0897231 0.0913405 0.0663767
0.239933 0.119646 0.0514839
0.390433 0.145678 0.0424659
0.503197 0.172473 0.0396124
0.594095 0.202365 0.0374609
0.67013 0.233875 0.0399481
0.728435 0.263493 0.0468452
0.771878 0.278431 0.0971695
0.0090486 0.170642 0.0897231
0.0561379 0.180362 0.0953231
0.245304 0.216434 0.0914321
0.419821 0.247364 0.0601816
0.540993 0.27483 0.0498512
0.624674 0.296971 0.0411841
0.695048 0.319799 0.0351263
0.755901 0.341909 0.0358892
0.803845 0.348409 0.0822156
0.00294499 0.286244 0.1093
0.0193179 0.294575 0.111742
0.225971 0.325643 0.106142
0.41239 0.359991 0.076585
0.543679 0.386648 0.0578012
0.646433 0.408179 0.0526741
0.726925 0.426596 0.0525216
0.790326 0.445411 0.0458991
0.846845 0.452003 0.0596323
0.00569162 0.390814 0.12668
0.0204623 0.396567 0.125368
0.196994 0.419867 0.119875
0.389517 0.452308 0.0964065
0.538598 0.484733 0.0852827
0.65185 0.509896 0.0712749
0.741161 0.530617 0.0666819
0.817639 0.54934 0.0708934
0.886625 0.564202 0.0698405
0.00354009 0.482658 0.15697
0.0139925 0.486641 0.155749
0.135897 0.503609 0.147021
0.340597 0.533104 0.133135
0.511971 0.567376 0.125139
0.645945 0.597467 0.121889
0.745571 0.620859 0.12018
0.835172 0.64033 0.120409
0.915633 0.660166 0.134493
0.00149538 0.566812 0.182025
0.00329595 0.569528 0.182284
0.0493172 0.581521 0.182971
0.275837 0.605829 0.178927
0.458518 0.637629 0.173251
0.61442 0.670512 0.178912
0.739513 0.699123 0.191791
0.850263 0.721325 0.200549
0.94049 0.742763 0.2103
0 0.654795 0.199573
0 0.656123 0.200656
0 0.662043 0.204974
0.0266728 0.675624 0.21384
0.28275 0.699474 0.227176
0.48426 0.731746 0.24303
0.668757 0.769863 0.270436
0.84651 0.804334 0.29453
0.960754 0.82739 0.310735
0 0.715984 0.32459
0 0.716121 0.326589
0 0.716564 0.33489
0 0.717235 0.351095
0 0.718791 0.377676
0 0.723918 0.416861
0.00125124 0.743496 0.475532
0.451133 0.810895 0.566476
0.928405 0.959533 0.720012
0.0362097 0.0487526 0.0947127
0.100542 0.0627146 0.102678
0.290455 0.081117 0.101015
0.436713 0.11371 0.10898
0.518227 0.138018 0.108339
0.593988 0.169299 0.110292
0.663783 0.203571 0.112963
0.720851 0.235401 0.114946
0.763302 0.253712 0.135897
0.00968948 0.0907912 0.108812
0.0823682 0.0998398 0.112596
0.249165 0.124483 0.106798
0.410727 0.147814 0.106584
0.512215 0.171099 0.108476
0.596368 0.199588 0.111513
0.669963 0.231785 0.114412
0.728878 0.260151 0.115434
0.772213 0.273259 0.13579
0.00106813 0.185214 0.131991
0.021149 0.192981 0.135531
0.232578 0.225528 0.144503
0.423636 0.250126 0.127611
0.53637 0.276585 0.125139
0.618555 0.299001 0.119738
0.690791 0.322942 0.118578
0.753719 0.344686 0.11783
0.803632 0.346242 0.133425
0.000274662 0.298421 0.149691
0.00639353 0.306752 0.152651
0.201358 0.33637 0.169986
0.4159 0.365927 0.154208
0.54876 0.387869 0.147097
0.644785 0.410117 0.144396
0.722652 0.429191 0.138338
0.784878 0.450309 0.125521
0.844862 0.45478 0.126619
0.00190738 0.398199 0.162676
0.0120241 0.404013 0.163012
0.17847 0.426719 0.170947
0.388922 0.457191 0.168276
0.539345 0.487678 0.172198
0.648951 0.511711 0.163912
0.737041 0.53228 0.157336
0.813336 0.5514 0.153765
0.882826 0.567971 0.139956
0.00276188 0.48574 0.187579
0.00767529 0.489723 0.186969
0.120119 0.506523 0.182101
0.333303 0.536034 0.182742
0.509483 0.569162 0.190158
0.642008 0.599069 0.19443
0.740703 0.621912 0.19176
0.830274 0.641703 0.187579
0.912016 0.662882 0.189822
0.000900282 0.567468 0.210239
0.00242618 0.570169 0.21091
0.0422522 0.582208 0.213245
0.267063 0.606836 0.21323
0.452918 0.638834 0.213062
0.610544 0.671702 0.221866
0.735592 0.700389 0.234623
0.846418 0.722866 0.239582
0.937743 0.745129 0.245197
0 0.653254 0.219409
0 0.654627 0.220493
0 0.660655 0.224674
0.0214847 0.674449 0.233082
0.272999 0.698817 0.246448
0.479301 0.731899 0.261433
0.665232 0.770535 0.287816
0.843687 0.805615 0.313863
0.959319 0.828992 0.328283
0 0.715831 0.325322
0 0.716014 0.327169
0 0.716564 0.335073
0 0.717235 0.351278
0 0.718791 0.377859
0 0.723934 0.41706
0.00128176 0.743557 0.475761
0.451728 0.811078 0.566766
0.928923 0.959731 0.720363
0.0632639 0.0640269 0.19263
0.126284 0.0746471 0.215656
0.269749 0.0985122 0.228824
0.43888 0.109117 0.230701
0.552499 0.14049 0.235645
0.619638 0.170138 0.239597
0.673823 0.202472 0.2439
0.723918 0.235935 0.245716
0.765225 0.250813 0.231159
0.0132296 0.11873 0.220264
0.0993057 0.121553 0.231861
0.247959 0.146105 0.241718
0.435828 0.154192 0.245289
0.558785 0.175586 0.241733
0.625391 0.199496 0.243778
0.678706 0.227726 0.247944
0.730648 0.259754 0.250919
0.773068 0.269184 0.235157
0 0.214481 0.254261
0.00103761 0.220951 0.258213
0.222004 0.242374 0.266056
0.426993 0.262715 0.257496
0.552865 0.281254 0.261418
0.631403 0.294347 0.260182
0.69369 0.314656 0.261143
0.750851 0.3411 0.265736
0.801236 0.342443 0.251164
0 0.32163 0.266941
3.0518e-05 0.33196 0.272267
0.141649 0.361746 0.285344
0.380926 0.38854 0.29398
0.535927 0.402975 0.287037
0.635813 0.418326 0.284916
0.711681 0.433997 0.28246
0.775448 0.454459 0.281621
0.837644 0.459297 0.27425
3.0518e-05 0.420569 0.272801
0.000244144 0.427649 0.274205
0.0860456 0.451911 0.28571
0.344686 0.480461 0.310445
0.530617 0.504677 0.308156
0.650431 0.517098 0.305837
0.732921 0.537224 0.304219
0.803586 0.557931 0.297124
0.870558 0.579065 0.289036
0.000106813 0.500771 0.275319
0.00196841 0.504845 0.275685
0.0710613 0.521721 0.278523
0.303029 0.551797 0.298985
0.506127 0.580407 0.312062
0.638086 0.606683 0.328771
0.732647 0.627451 0.325368
0.820844 0.647227 0.317449
0.901335 0.671641 0.307942
0 0.573144 0.286091
0.00030518 0.575952 0.287343
0.0245365 0.588159 0.29247
0.245182 0.613046 0.297429
0.437308 0.646204 0.307408
0.602914 0.677592 0.326131
0.726452 0.705486 0.340444
0.836378 0.728359 0.341466
0.930251 0.753033 0.336477
0 0.650065 0.280293
0 0.651453 0.28127
0 0.657954 0.285801
0.00929274 0.672862 0.295308
0.243534 0.699046 0.309972
0.462028 0.734371 0.323537
0.65449 0.773831 0.344503
0.835325 0.810178 0.373602
0.954925 0.834943 0.384802
0 0.712978 0.336034
0 0.713237 0.337713
0 0.714061 0.344991
0 0.715511 0.358846
0 0.717891 0.382483
0 0.723995 0.417899
0.00138857 0.743801 0.476783
0.454292 0.811841 0.568017
0.931105 0.960601 0.72192
0.102129 0.0873884 0.302647
0.166995 0.0886702 0.327474
0.293004 0.122667 0.342123
0.429282 0.125963 0.34255
0.53135 0.147326 0.344656
0.620249 0.182239 0.34757
0.686091 0.215885 0.352346
0.735576 0.252354 0.356176
0.776608 0.27364 0.342168
0.0464942 0.155535 0.334112
0.138064 0.158938 0.347082
0.289906 0.175952 0.361913
0.430442 0.17583 0.363531
0.538582 0.185809 0.359426
0.630365 0.212787 0.355047
0.69546 0.242466 0.357321
0.742947 0.273579 0.361074
0.783597 0.290303 0.347127
0 0.252903 0.371237
0.00563058 0.257511 0.375921
0.252674 0.271321 0.381781
0.411231 0.291234 0.389349
0.541985 0.299016 0.386221
0.653803 0.308919 0.380804
0.721599 0.324681 0.374701
0.765209 0.345892 0.376471
0.808118 0.355459 0.366934
0 0.350484 0.389334
0 0.358083 0.392142
0.121309 0.381109 0.401556
0.384161 0.399573 0.404166
0.542962 0.416464 0.403464
0.652796 0.428397 0.398642
0.729335 0.435554 0.398733
0.784421 0.445579 0.392752
0.837629 0.458198 0.392264
0 0.43769 0.385855
9.15541e-05 0.444343 0.387747
0.0281987 0.473136 0.401587
0.331518 0.49868 0.412024
0.506264 0.521462 0.426581
0.634073 0.536797 0.424796
0.721614 0.549004 0.416709
0.795514 0.561273 0.411719
0.863493 0.578042 0.409247
3.0518e-05 0.516136 0.380758
0.000366217 0.520439 0.381079
0.0280766 0.540658 0.385809
0.269718 0.572824 0.402991
0.466789 0.602258 0.431724
0.629282 0.625986 0.433707
0.735866 0.63418 0.430762
0.819089 0.653529 0.426902
0.891737 0.680659 0.416434
0 0.585657 0.373556
0 0.588647 0.374166
0.0115511 0.601419 0.37763
0.224689 0.626169 0.386267
0.421469 0.660166 0.406882
0.596078 0.691035 0.428473
0.72845 0.71368 0.443992
0.830213 0.736065 0.441398
0.923888 0.762081 0.429541
0 0.651576 0.356237
0 0.653178 0.357214
0 0.660578 0.361532
0.0028687 0.676799 0.370611
0.200259 0.70428 0.386603
0.442496 0.741085 0.401602
0.645014 0.781537 0.418753
0.828809 0.817594 0.450706
0.951049 0.843473 0.454856
0 0.707774 0.357198
0 0.70808 0.358663
0 0.709361 0.365057
0 0.711437 0.377478
0 0.714717 0.39881
0 0.721706 0.431739
0.000823987 0.743328 0.48397
0.459464 0.813413 0.57055
0.935393 0.96231 0.725017
0.160372 0.125338 0.402258
0.211826 0.128985 0.416327
0.329061 0.153033 0.433951
0.437964 0.170809 0.431479
0.525292 0.178058 0.431266
0.605692 0.203189 0.433692
0.682887 0.241566 0.437598
0.74464 0.278874 0.444419
0.792279 0.309499 0.43801
0.119356 0.195605 0.425772
0.189105 0.199115 0.435843
0.330892 0.207599 0.448951
0.442054 0.218204 0.447944
0.532692 0.216236 0.44712
0.614755 0.233219 0.444938
0.692515 0.266682 0.444144
0.752285 0.298543 0.448463
0.798413 0.324331 0.442115
0.00323491 0.292638 0.450782
0.0503548 0.297978 0.457084
0.292622 0.308324 0.476631
0.434958 0.328405 0.477592
0.540307 0.32784 0.485313
0.631342 0.331853 0.479194
0.717845 0.346868 0.466438
0.777035 0.36672 0.462409
0.820386 0.382116 0.458289
0 0.383108 0.469825
0 0.389181 0.477516
0.168933 0.406714 0.485771
0.397238 0.423499 0.4916
0.525414 0.441672 0.497368
0.63682 0.448585 0.4925
0.737987 0.450462 0.491951
0.804196 0.457298 0.481239
0.846769 0.467674 0.480537
0 0.463279 0.478248
0 0.469139 0.480827
0.0276188 0.492073 0.490654
0.334035 0.516014 0.501869
0.513329 0.532509 0.507836
0.643778 0.549386 0.5122
0.73547 0.558297 0.505867
0.810422 0.560693 0.500389
0.868315 0.568872 0.497414
0 0.534356 0.471458
0 0.538033 0.472206
0.0250706 0.55523 0.476844
0.220172 0.594766 0.495918
0.467842 0.61857 0.511482
0.617029 0.641398 0.525444
0.724971 0.653696 0.526085
0.81149 0.661555 0.514199
0.888823 0.676051 0.506966
0 0.599496 0.460105
0 0.602426 0.460883
0.0099031 0.614954 0.463249
0.202106 0.642359 0.469978
0.399939 0.678782 0.494408
0.569772 0.709819 0.525948
0.727443 0.731273 0.528572
0.837781 0.740597 0.528191
0.919219 0.769162 0.511955
0 0.658564 0.433768
0 0.660395 0.434821
0 0.668894 0.439261
0.000183108 0.68716 0.447486
0.151186 0.716075 0.461219
0.422004 0.753368 0.480842
0.638071 0.794049 0.498711
0.829328 0.8271 0.536767
0.950149 0.853101 0.528771
0 0.700648 0.390265
0 0.701045 0.391608
0 0.702663 0.397131
0 0.705562 0.407614
0 0.709987 0.426398
0 0.718349 0.455848
0 0.741375 0.503731
0.449622 0.815198 0.583993
0.941848 0.965133 0.729793
0.216541 0.191318 0.49247
0.256153 0.195743 0.498589
0.364462 0.209613 0.515236
0.462715 0.225727 0.517662
0.537682 0.232471 0.515251
0.605173 0.243397 0.514366
0.674159 0.272251 0.517037
0.742199 0.313664 0.522255
0.80473 0.348013 0.527352
0.190326 0.248798 0.506584
0.240864 0.252338 0.512627
0.366155 0.25742 0.527428
0.466209 0.266682 0.527398
0.542809 0.267659 0.526085
0.61265 0.271214 0.525017
0.682139 0.293507 0.52462
0.749935 0.331884 0.526757
0.810437 0.361105 0.530571
0.0490883 0.341054 0.524163
0.141848 0.345769 0.529076
0.333776 0.35172 0.552285
0.465309 0.3635 0.548074
0.548012 0.37142 0.553185
0.628229 0.362997 0.556054
0.703899 0.369055 0.549172
0.773754 0.393347 0.541146
0.831189 0.412528 0.542473
0.000915541 0.420294 0.538186
0.0165103 0.425437 0.544427
0.243336 0.440208 0.560693
0.429892 0.452277 0.570871
0.541909 0.471626 0.572702
0.641276 0.470115 0.583291
0.718105 0.472068 0.57319
0.799268 0.479118 0.560525
0.858045 0.488579 0.558114
0 0.491295 0.545708
0.000457771 0.496559 0.5505
0.0994125 0.514595 0.565545
0.355383 0.536156 0.577615
0.516182 0.552758 0.584482
0.629221 0.567605 0.590127
0.724544 0.574594 0.582544
0.818479 0.573983 0.580575
0.883818 0.575326 0.574105
0 0.557473 0.547158
0 0.561593 0.54934
0.0136721 0.577585 0.557412
0.256931 0.608881 0.574395
0.470222 0.636088 0.589715
0.619989 0.651438 0.597299
0.733379 0.664576 0.602762
0.815442 0.671077 0.59472
0.899138 0.666316 0.584512
0 0.618509 0.540154
0 0.621866 0.542168
0.000900282 0.634562 0.547967
0.186648 0.656977 0.552453
0.37673 0.700145 0.57438
0.572931 0.726558 0.594919
0.716945 0.749584 0.608209
0.829435 0.754818 0.605539
0.920073 0.76556 0.590219
0 0.668971 0.508873
0 0.671183 0.510262
0 0.680568 0.515984
0.000106813 0.700252 0.526299
0.111086 0.730587 0.53724
0.415412 0.767788 0.553079
0.623941 0.809415 0.589319
0.835538 0.839246 0.611475
0.952117 0.861234 0.600549
0 0.692836 0.431891
0 0.693355 0.433143
0 0.695293 0.438376
0 0.69897 0.448646
0 0.70489 0.465919
0 0.715312 0.491691
0 0.740124 0.535515
0.424292 0.81767 0.607996
0.95021 0.969299 0.740963
0.266545 0.277455 0.571679
0.299168 0.280842 0.574792
0.394415 0.289067 0.587106
0.4878 0.299687 0.595117
0.561135 0.305684 0.597467
0.622675 0.307836 0.596887
0.678355 0.321904 0.595743
0.738399 0.351537 0.598062
0.808774 0.392309 0.608469
0.248356 0.316609 0.578363
0.287526 0.319844 0.582071
0.393515 0.325612 0.596414
0.492592 0.33048 0.602213
0.564569 0.333303 0.603693
0.627253 0.332647 0.60415
0.684153 0.340383 0.60235
0.744671 0.366644 0.602975
0.814481 0.404623 0.611368
0.160754 0.396384 0.59176
0.230106 0.400595 0.595895
0.369177 0.406531 0.61529
0.49163 0.408988 0.620356
0.565286 0.417899 0.617395
0.633402 0.412863 0.622309
0.700008 0.406241 0.623667
0.765133 0.418799 0.617914
0.834623 0.448341 0.620905
0.0480049 0.466743 0.604059
0.109926 0.470771 0.608484
0.306203 0.480903 0.624262
0.458457 0.488045 0.639475
0.565927 0.500435 0.635996
0.636652 0.508751 0.641016
0.715969 0.49485 0.648203
0.788373 0.496651 0.635493
0.862791 0.514168 0.633204
0.0125734 0.525597 0.610529
0.0352178 0.529305 0.614267
0.224857 0.542702 0.627802
0.398444 0.560708 0.643961
0.541756 0.574289 0.654276
0.638758 0.590784 0.657542
0.732403 0.587839 0.668498
0.799908 0.593011 0.652323
0.891051 0.593042 0.646494
0.000274662 0.583032 0.609995
0.00173953 0.586633 0.612314
0.0611276 0.601007 0.62324
0.313695 0.624964 0.643198
0.488914 0.649241 0.657496
0.615793 0.667597 0.66569
0.719356 0.67892 0.673899
0.811795 0.685084 0.663798
0.916411 0.672114 0.660487
0 0.637293 0.608072
0 0.64065 0.610346
0.00112917 0.654459 0.619104
0.148196 0.677714 0.631022
0.405707 0.709911 0.648188
0.575296 0.741283 0.669627
0.717098 0.757229 0.678874
0.834394 0.764065 0.678325
0.928435 0.757259 0.667414
0 0.68217 0.582864
0 0.684337 0.584497
0 0.69424 0.591699
0 0.714931 0.605982
0.0593423 0.745754 0.624521
0.421714 0.78056 0.627176
0.627115 0.824613 0.66659
0.832303 0.856931 0.689143
0.953429 0.864439 0.673945
0 0.685267 0.483314
0 0.685863 0.484535
0 0.688396 0.489723
0 0.693126 0.499596
0 0.700954 0.516854
0 0.714031 0.543694
0 0.742367 0.584054
0.391257 0.823392 0.649393
0.95993 0.974762 0.769589
0.303105 0.400168 0.65626
0.332998 0.403418 0.658152
0.415122 0.410895 0.666896
0.507607 0.419379 0.677302
0.582483 0.423178 0.683711
0.643549 0.428138 0.690288
0.69839 0.427802 0.696986
0.749493 0.432349 0.698482
0.809216 0.455619 0.698573
0.287968 0.421637 0.658656
0.321218 0.424842 0.660899
0.410788 0.432441 0.670726
0.50808 0.437675 0.682261
0.585992 0.441398 0.687831
0.645914 0.443046 0.693431
0.700771 0.442405 0.700404
0.752544 0.443183 0.701976
0.813489 0.465003 0.701213
0.237705 0.476905 0.66656
0.279332 0.480598 0.668925
0.388708 0.490425 0.681239
0.501625 0.493324 0.699519
0.592752 0.493767 0.699413
0.651621 0.495796 0.702617
0.707073 0.490684 0.710887
0.762829 0.483619 0.714504
0.828504 0.497139 0.710079
0.182055 0.533776 0.676509
0.234546 0.537621 0.6795
0.35314 0.548592 0.691218
0.475776 0.55491 0.71136
0.586908 0.555108 0.717037
0.657191 0.560998 0.7131
0.712535 0.559274 0.722103
0.776135 0.545556 0.731365
0.852949 0.548913 0.722103
0.152087 0.584192 0.686244
0.197818 0.587121 0.688838
0.317815 0.597803 0.69929
0.437842 0.611261 0.717876
0.555871 0.618982 0.729702
0.655299 0.625956 0.729397
0.718639 0.634333 0.735714
0.794965 0.619486 0.749249
0.879911 0.61677 0.732464
0.0567178 0.630045 0.691768
0.0879225 0.632944 0.69366
0.245655 0.643885 0.701152
0.39295 0.660487 0.716609
0.517021 0.677791 0.732479
0.631327 0.691676 0.742809
0.726085 0.703471 0.752514
0.822293 0.696696 0.767803
0.903304 0.693782 0.745159
0.00122072 0.672709 0.692576
0.0043183 0.675578 0.694514
0.048661 0.686992 0.700664
0.288441 0.705776 0.708232
0.455482 0.728313 0.728695
0.596002 0.75024 0.745693
0.713314 0.770642 0.762753
0.834379 0.778058 0.777737
0.930602 0.770947 0.762142
0 0.702998 0.671534
0 0.705257 0.673381
0 0.715038 0.680995
0 0.734539 0.695277
0.0724651 0.76408 0.71519
0.390341 0.800687 0.730007
0.624292 0.839689 0.76173
0.825803 0.865507 0.780102
0.951888 0.861326 0.772641
0 0.680903 0.556008
0 0.681773 0.557473
0 0.685344 0.5635
0 0.692241 0.575311
0 0.704143 0.5953
0 0.723247 0.625284
0 0.759075 0.669398
0.362188 0.843656 0.732662
0.967987 0.981079 0.81236
0.37966 0.647318 0.774365
0.393301 0.650248 0.775525
0.441062 0.660685 0.779919
0.499809 0.674281 0.788647
0.564675 0.685954 0.799985
0.641764 0.690257 0.809079
0.719448 0.68838 0.811749
0.776684 0.688289 0.816022
0.837369 0.674571 0.831739
0.374243 0.653758 0.775799
0.388632 0.656672 0.777066
0.437217 0.666865 0.781338
0.496895 0.679896 0.7897
0.562066 0.691661 0.801495
0.639506 0.696147 0.810987
0.719112 0.693217 0.813596
0.777951 0.692729 0.817502
0.83888 0.678355 0.832868
0.367559 0.675654 0.781353
0.379889 0.67805 0.782391
0.429129 0.687449 0.786786
0.489265 0.699901 0.794217
0.554971 0.712154 0.806348
0.631876 0.716793 0.817456
0.717693 0.71223 0.820981
0.782696 0.709422 0.823056
0.844816 0.692485 0.837278
0.36878 0.70695 0.789624
0.381933 0.709163 0.790753
0.427695 0.717189 0.795041
0.485344 0.728405 0.802152
0.552041 0.741146 0.813336
0.625223 0.747356 0.826749
0.712886 0.743114 0.832746
0.790616 0.737484 0.833417
0.856184 0.718364 0.845655
0.38854 0.742733 0.800656
0.398688 0.744442 0.801587
0.435065 0.750637 0.805051
0.490547 0.760708 0.81149
0.558053 0.772808 0.822293
0.625513 0.781933 0.835889
0.704829 0.7823 0.84593
0.8009 0.773465 0.8477
0.873152 0.752163 0.857618
0.413184 0.779461 0.81384
0.421118 0.780713 0.814603
0.452247 0.785565 0.817639
0.507774 0.794293 0.823774
0.572976 0.805188 0.832914
0.637369 0.816495 0.84535
0.708461 0.822278 0.85803
0.812528 0.814435 0.864317
0.896635 0.787182 0.872023
0.440345 0.816175 0.829511
0.447227 0.817197 0.830274
0.474495 0.821378 0.833051
0.523201 0.828504 0.838132
0.589075 0.838453 0.845701
0.655161 0.849821 0.856107
0.726604 0.860288 0.870237
0.827085 0.858808 0.882383
0.926925 0.82562 0.888624
0.406561 0.852033 0.841382
0.413275 0.852995 0.842176
0.439963 0.856977 0.845487
0.487083 0.863722 0.851545
0.556359 0.873518 0.860487
0.63888 0.884779 0.870649
0.742061 0.89839 0.883314
0.851087 0.90782 0.901854
0.957366 0.877058 0.905898
0 0.819699 0.811612
0 0.820996 0.812802
0 0.826352 0.817807
0 0.836576 0.827512
0 0.854246 0.843595
0 0.882994 0.86865
0.0832074 0.927092 0.902281
0.603464 0.974472 0.931716
0.967102 0.975845 0.921416
