lut.cube
TITLE "Generated by Resolve"
LUT_3D_SIZE 5
0.0301823 0.0408637 0.0480507
0.2327 0.0824292 0.0394903
0.499413 0.137804 0.0369573
0.662974 0.207767 0.0422217
0.762951 0.259754 0.099794
0.0090486 0.170642 0.0897231
0.245304 0.216434 0.0914321
0.540993 0.27483 0.0498512
0.695048 0.319799 0.0351263
0.803845 0.348409 0.0822156
0.00569162 0.390814 0.12668
0.196994 0.419867 0.119875
0.538598 0.484733 0.0852827
0.741161 0.530617 0.0666819
0.886625 0.564202 0.0698405
0.00149538 0.566812 0.182025
0.0493172 0.581521 0.182971
0.458518 0.637629 0.173251
0.739513 0.699123 0.191791
0.94049 0.742763 0.2103
0 0.715984 0.32459
0 0.716564 0.33489
0 0.718791 0.377676
0.00125124 0.743496 0.475532
0.928405 0.959533 0.720012
0.0632639 0.0640269 0.19263
0.269749 0.0985122 0.228824
0.552499 0.14049 0.235645
0.673823 0.202472 0.2439
0.765225 0.250813 0.231159
0 0.214481 0.254261
0.222004 0.242374 0.266056
0.552865 0.281254 0.261418
0.69369 0.314656 0.261143
0.801236 0.342443 0.251164
3.0518e-05 0.420569 0.272801
0.0860456 0.451911 0.28571
0.530617 0.504677 0.308156
0.732921 0.537224 0.304219
0.870558 0.579065 0.289036
0 0.573144 0.286091
0.0245365 0.588159 0.29247
0.437308 0.646204 0.307408
0.726452 0.705486 0.340444
0.930251 0.753033 0.336477
0 0.712978 0.336034
0 0.714061 0.344991
0 0.717891 0.382483
0.00138857 0.743801 0.476783
0.931105 0.960601 0.72192
0.160372 0.125338 0.402258
0.329061 0.153033 0.433951
0.525292 0.178058 0.431266
0.682887 0.241566 0.437598
0.792279 0.309499 0.43801
0.00323491 0.292638 0.450782
0.292622 0.308324 0.476631
0.540307 0.32784 0.485313
0.717845 0.346868 0.466438
0.820386 0.382116 0.458289
0 0.463279 0.478248
0.0276188 0.492073 0.490654
0.513329 0.532509 0.507836
0.73547 0.558297 0.505867
0.868315 0.568872 0.497414
0 0.599496 0.460105
0.0099031 0.614954 0.463249
0.399939 0.678782 0.494408
0.727443 0.731273 0.528572
0.919219 0.769162 0.511955
0 0.700648 0.390265
0 0.702663 0.397131
0 0.709987 0.426398
0 0.741375 0.503731
0.941848 0.965133 0.729793
0.266545 0.277455 0.571679
0.394415 0.289067 0.587106
0.561135 0.305684 0.597467
0.678355 0.321904 0.595743
0.808774 0.392309 0.608469
0.160754 0.396384 0.59176
0.369177 0.406531 0.61529
0.565286 0.417899 0.617395
0.700008 0.406241 0.623667
0.834623 0.448341 0.620905
0.0125734 0.525597 0.610529
0.224857 0.542702 0.627802
0.541756 0.574289 0.654276
0.732403 0.587839 0.668498
0.891051 0.593042 0.646494
0 0.637293 0.608072
0.00112917 0.654459 0.619104
0.405707 0.709911 0.648188
0.717098 0.757229 0.678874
0.928435 0.757259 0.667414
0 0.685267 0.483314
0 0.688396 0.489723
0 0.700954 0.516854
0 0.742367 0.584054
0.95993 0.974762 0.769589
0.37966 0.647318 0.774365
0.441062 0.660685 0.779919
0.564675 0.685954 0.799985
0.719448 0.68838 0.811749
0.837369 0.674571 0.831739
0.367559 0.675654 0.781353
0.429129 0.687449 0.786786
0.554971 0.712154 0.806348
0.717693 0.71223 0.820981
0.844816 0.692485 0.837278
0.38854 0.742733 0.800656
0.435065 0.750637 0.805051
0.558053 0.772808 0.822293
0.704829 0.7823 0.84593
0.873152 0.752163 0.857618
0.440345 0.816175 0.829511
0.474495 0.821378 0.833051
0.589075 0.838453 0.845701
0.726604 0.860288 0.870237
0.926925 0.82562 0.888624
0 0.819699 0.811612
0 0.826352 0.817807
0 0.854246 0.843595
0.0832074 0.927092 0.902281
0.967102 0.975845 0.921416
